X:5
T:Ag\"uita de Putina
R:waynu
Z:id:hn-waynu-6
O:Peru
M:2/4
L:1/8
Q:1/4=90
K:Em
[M:3/4] B/BB/ e/ee/ fg | e3/ff/g e>e | e/gg/ ff/fec/ | [M:2/4] B>B e/ee/ |
[M:3/4] d/BBBB/ AF |[M:2/4] G3/AA/G/F/ | E/e/B/e/ Be :|
|: A/cc/ B/BB/ | A/Ac/ e>e |[M:3/4] d/BBBB/ AF |[M:2/4] G3/AA/G/F/ |
[1 E/e/B/e/ Be :|2 |: E3/Ac/B/A/ | B/B/B/A/ G/F/E |[M:3/4] G/BBBB/ AF |
[M:2/4] G3/AA/G/F/ :| E/e/B/e/ Be ||
W:Agüita, agüita de Putina, palomitay,
W:cómo quieres que me vaya, ay, ay, ay, ay,
W:sabiendo que te he querido, palomitay?
W:
W:Tu padre, tu madre, no quieren ya
W:que yo te siga queriendo, palomitay.
W:
W:Ay, mi palomita, linda flor,
W:que yo te siga queriendo, palomita.

